public/img/mdi-magic.svg

<svg width="16" height="16" viewBox="0 0 16 16" fill="none" xmlns="http://www.w3.org/2000/svg">
<path d="M5.00004 3.73301L3.33337 4.66634L4.26671 2.99967L3.33337 1.33301L5.00004 2.26634L6.66671 1.33301L5.73337 2.99967L6.66671 4.66634L5.00004 3.73301ZM13 10.2663L14.6667 9.33301L13.7334 10.9997L14.6667 12.6663L13 11.733L11.3334 12.6663L12.2667 10.9997L11.3334 9.33301L13 10.2663ZM14.6667 1.33301L13.7334 2.99967L14.6667 4.66634L13 3.73301L11.3334 4.66634L12.2667 2.99967L11.3334 1.33301L13 2.26634L14.6667 1.33301ZM8.89337 8.51967L10.52 6.89301L9.10671 5.47967L7.48004 7.10634L8.89337 8.51967ZM9.58004 4.85967L11.14 6.41967C11.4 6.66634 11.4 7.09967 11.14 7.35967L3.36004 15.1397C3.10004 15.3997 2.66671 15.3997 2.42004 15.1397L0.860039 13.5797C0.600039 13.333 0.600039 12.8997 0.860039 12.6397L8.64004 4.85967C8.90004 4.59967 9.33337 4.59967 9.58004 4.85967Z" fill="#F8A700"/>
</svg>

<svg xmlns="http://www.w3.org/2000/svg" width="16" height="16" fill="none" viewBox="0 0 16 16"><path fill="#f8a700" d="m5 3.733-1.667.933L4.267 3l-.934-1.667L5 2.266l1.667-.933L5.733 3l.934 1.666zm8 6.533 1.667-.933L13.733 11l.934 1.666L13 11.733l-1.667.933.934-1.666-.934-1.667zm1.667-8.933L13.733 3l.934 1.666L13 3.733l-1.667.933L12.267 3l-.934-1.667L13 2.266zM8.893 8.52l1.627-1.627L9.107 5.48 7.48 7.106zm.687-3.66 1.56 1.56c.26.246.26.68 0 .94l-7.78 7.78a.664.664 0 0 1-.94 0L.86 13.58a.664.664 0 0 1 0-.94l7.78-7.78c.26-.26.693-.26.94 0"/></svg>
